X:166
T: Cozes zrobila Anusiu
N: K0041a
O: od Gostynina i Kowala
N: Piesn wpleciona w opowiesc typu "Piekna i bestia"
R: dumy i piesni]
M: 3/4
L: 1/8
K: A
=ccd2B2 | =ce=f2d2 | =ccd2B2 | =ce=fedB |
ccB2G2 | A3=cdB | =ccB2G2 | Ae=fedB |
=ccB2G2 | A3=cdB |
ccB2G2 | A6

@@@ Tune index: 3141
